icons/file/icon_account-usd_m_black.svg

<?xml version="1.0" encoding="UTF-8"?>
<svg width="24px" height="24px" viewBox="0 0 24 24" version="1.1" xmlns="http://www.w3.org/2000/svg" xmlns:xlink="http://www.w3.org/1999/xlink">
    <!-- Generator: Sketch 48.2 (47327) - http://www.bohemiancoding.com/sketch -->
    <title>icon_account-usd_m_white</title>
    <desc>Created with Sketch.</desc>
    <defs></defs>
    <g id="mobile" stroke="none" stroke-width="1" fill="none" fill-rule="evenodd" transform="translate(-292.000000, -261.000000)">
        <g id="Headings" transform="translate(64.000000, 77.000000)"></g>
        <g id="icon_tool_account_usd__m__white" transform="translate(292.000000, 261.000000)">
            <g id="ungroup">
                <rect id="Rectangle-path" x="0" y="0" width="24" height="24"></rect>
                <path d="M19,23 L5,23 C3.9,23 3,22.1 3,21 L3,3 C3,1.9 3.9,1 5,1 L15.7,1 L21,6.3 L21,21 C21,22.1 20.1,23 19,23 L19,23 Z M5,2 C4.4,2 4,2.4 4,3 L4,21 C4,21.6 4.4,22 5,22 L19,22 C19.6,22 20,21.6 20,21 L20,6.7 L15.3,2 L5,2 L5,2 Z" id="Shape" fill="#0B1F35"></path>
                <path d="M12.8205128,12.1472868 L12.4102564,12.0465116 L12.4102564,8.01550388 C13.7435897,8.11627907 14.6666667,8.92248062 14.7692308,10.0310078 L15.7948718,10.0310078 C15.6923077,8.41860465 14.3589744,7.20930233 12.4102564,7.10852713 L12.4102564,6 L11.3846154,6 L11.3846154,7.10852713 C9.53846154,7.31007752 8.30769231,8.51937984 8.30769231,10.0310078 C8.30769231,11.4418605 9.23076923,12.248062 11.2820513,12.751938 L11.3846154,12.751938 L11.3846154,17.0852713 C10.0512821,16.8837209 9.12820513,16.0775194 9.02564103,14.9689922 L8,14.9689922 C8.1025641,16.6821705 9.43589744,17.7906977 11.3846154,17.9922481 L11.3846154,19 L12.4102564,19 L12.4102564,17.9922481 C14.5641026,17.8914729 16,16.6821705 16,14.8682171 C16,13.5581395 15.0769231,12.751938 12.8205128,12.1472868 L12.8205128,12.1472868 Z M9.33333333,10.0310078 C9.33333333,9.02325581 10.1538462,8.21705426 11.3846154,8.01550388 L11.3846154,11.744186 C9.94871795,11.3410853 9.33333333,10.8372093 9.33333333,10.0310078 L9.33333333,10.0310078 Z M12.4102564,17.1860465 L12.4102564,13.0542636 L12.6153846,13.0542636 C14.2564103,13.4573643 14.974359,14.0620155 14.974359,15.0697674 C14.8717949,16.2790698 13.8461538,17.0852713 12.4102564,17.1860465 L12.4102564,17.1860465 Z" id="Shape" fill="#0B1F35" opacity="0.3"></path>
            </g>
        </g>
    </g>
</svg>

<svg width="24" height="24" viewBox="0 0 24 24" xmlns="http://www.w3.org/2000/svg"><g fill="none" fill-rule="evenodd"><path d="M0 0h24v24H0z"/><path d="M19 23H5c-1.1 0-2-.9-2-2V3c0-1.1.9-2 2-2h10.7L21 6.3V21c0 1.1-.9 2-2 2zM5 2c-.6 0-1 .4-1 1v18c0 .6.4 1 1 1h14c.6 0 1-.4 1-1V6.7L15.3 2H5z" fill="#0B1F35"/><path d="M12.82 12.147l-.41-.1V8.016c1.334.1 2.257.906 2.36 2.015h1.025c-.103-1.612-1.436-2.822-3.385-2.922V6h-1.025v1.109c-1.847.201-3.077 1.41-3.077 2.922 0 1.41.923 2.217 2.974 2.72h.103v4.334c-1.334-.201-2.257-1.007-2.36-2.116H8c.103 1.713 1.436 2.822 3.385 3.023V19h1.025v-1.008c2.154-.1 3.59-1.31 3.59-3.124 0-1.31-.923-2.116-3.18-2.72zm-3.487-2.116c0-1.008.82-1.814 2.052-2.015v3.728c-1.436-.403-2.052-.907-2.052-1.713zm3.077 7.155v-4.132h.205c1.641.403 2.36 1.008 2.36 2.016-.103 1.21-1.129 2.015-2.565 2.116z" fill="#0B1F35" opacity=".3"/></g></svg>
